Flat-Remix-Dark/devices/scalable/network-wired-disconected.svg

<svg xmlns="http://www.w3.org/2000/svg" xmlns:xlink="http://www.w3.org/1999/xlink" width="384pt" height="384pt" version="1.1" viewBox="0 0 384 384"> <defs> <filter id="alpha" width="100%" height="100%" x="0%" y="0%" filterUnits="objectBoundingBox"> <feColorMatrix in="SourceGraphic" type="matrix" values="0 0 0 0 1 0 0 0 0 1 0 0 0 0 1 0 0 0 1 0"/> </filter> <mask id="mask0"> <g filter="url(#alpha)"> <rect width="384" height="384" x="0" y="0" style="fill:rgb(0%,0%,0%);fill-opacity:0.301961"/> </g> </mask> <clipPath id="clip1"> <rect width="384" height="384" x="0" y="0"/> </clipPath> <g id="surface5" clip-path="url(#clip1)"> <path style="fill:rgb(0%,0%,0%);stroke:rgb(0%,0%,0%)" d="M 269.403242 218.122311 L 269.403242 229.000864 L 280.281795 229.000864 L 280.28258 232.321115 L 269.404027 232.321115 L 269.403242 243.200452 L 266.122247 243.199667 L 266.122247 232.321115 L 255.243694 232.321115 L 255.242909 229.000864 L 266.121462 229.000864 L 266.122247 218.121526 Z M 269.403242 218.122311" transform="matrix(2.487693,2.487693,-2.487693,2.487693,99.70222,-1048.192859)"/> </g> </defs> <g> <path style="fill:rgb(100.000%,100.000%,100.000%)" d="M 130.808594 273.929688 L 118.414062 261.617188 L 94.175781 261.414062 L 69.933594 261.210938 L 69.933594 91.011719 L 314.066406 91.011719 L 314.066406 261.210938 L 289.824219 261.414062 L 265.585938 261.617188 L 253.191406 273.929688 L 240.796875 286.238281 L 143.203125 286.238281 Z M 130.808594 273.929688"/> <path style="fill:rgb(0%,0%,0%)" d="M 36.820312 40.886719 L 31.8125 43.269531 C 22.464844 47.722656 17.761719 54.328125 16.355469 64.992188 C 15.84375 68.847656 15.648438 110.226562 15.796875 183.363281 C 16.015625 291.097656 16.085938 295.964844 17.46875 299.652344 C 20.589844 307.972656 25.960938 313.191406 34.765625 316.445312 C 38.800781 317.941406 41.007812 318.078125 64.160156 318.3125 C 77.925781 318.449219 90.03125 318.75 91.0625 318.976562 C 92.09375 319.207031 98.011719 324.363281 104.207031 330.433594 C 113.972656 340.003906 115.933594 341.582031 118.890625 342.238281 C 123.953125 343.367188 259.28125 343.421875 264.523438 342.296875 C 268.308594 341.484375 269.328125 340.691406 279.820312 330.410156 C 286.003906 324.351562 291.90625 319.203125 292.9375 318.972656 C 293.96875 318.742188 306.769531 318.4375 321.382812 318.300781 C 343.578125 318.089844 348.480469 317.84375 351.152344 316.804688 C 358.925781 313.785156 363.882812 308.546875 366.636719 300.457031 C 367.859375 296.867188 367.980469 287.992188 368.199219 183.746094 C 368.351562 110.183594 368.160156 68.859375 367.648438 64.992188 C 366.234375 54.289062 361.574219 47.707031 352.3125 43.316406 L 347.183594 40.886719 Z M 69.933594 90.945312 L 314.066406 90.945312 L 314.066406 261.144531 L 289.828125 261.351562 L 265.585938 261.554688 L 253.191406 273.863281 L 240.800781 286.175781 L 143.203125 286.175781 L 130.808594 273.863281 L 118.417969 261.554688 L 94.175781 261.351562 L 69.933594 261.144531 Z M 69.933594 90.945312"/> <use mask="url(#mask0)" xlink:href="#surface5"/> <path style="fill:rgb(0%,0%,0%);stroke:rgb(0%,0%,0%)" d="M 269.403127 218.122196 L 269.403127 229.000749 L 280.281679 229.000749 L 280.282465 232.321 L 269.403912 232.321 L 269.403127 243.200337 L 266.122132 243.199552 L 266.122132 232.321 L 255.243579 232.321 L 255.242794 229.000749 L 266.121347 229.000749 L 266.122132 218.121411 Z M 269.403127 218.122196" transform="matrix(2.487693,2.487693,-2.487693,2.487693,99.70222,-1056.65713)"/> </g> </svg>

<svg width="512" height="512" version="1.1" viewBox="0 0 384 384" xmlns="http://www.w3.org/2000/svg" xmlns:xlink="http://www.w3.org/1999/xlink"><defs><filter id="alpha" x="0%" y="0%" width="100%" height="100%"><feColorMatrix in="SourceGraphic" values="0 0 0 0 1 0 0 0 0 1 0 0 0 0 1 0 0 0 1 0"/></filter><mask id="b"><g filter="url(#alpha)"><rect width="384" height="384" fill-opacity=".30196"/></g></mask><clipPath id="c"><rect width="384" height="384"/></clipPath><g id="a" clip-path="url(#c)"><path transform="matrix(2.4877 2.4877 -2.4877 2.4877 99.702 -1048.2)" d="m269.4 218.12v10.879h10.879l7.85e-4 3.3203h-10.879l-7.85e-4 10.879-3.281-7.85e-4v-10.879h-10.879l-7.85e-4 -3.3203h10.879l7.85e-4 -10.879z" stroke="#000"/></g></defs><path d="m36.82 40.887-5.0078 2.3828c-9.3477 4.4531-14.051 11.059-15.457 21.723-0.51172 3.8555-0.70703 45.234-0.55859 118.37 0.21875 107.73 0.28906 112.6 1.6719 116.29 3.1211 8.3203 8.4922 13.539 17.297 16.793 4.0352 1.4961 6.2422 1.6328 29.395 1.8672 13.766 0.13672 25.871 0.4375 26.902 0.66406 1.0312 0.23047 6.9492 5.3867 13.145 11.457 9.7656 9.5703 11.727 11.148 14.684 11.805 5.0625 1.1289 140.39 1.1836 145.63 0.0586 3.7852-0.8125 4.8047-1.6055 15.297-11.887 6.1836-6.0586 12.086-11.207 13.117-11.438 1.0312-0.23047 13.832-0.53516 28.445-0.67188 22.195-0.21094 27.098-0.45703 29.77-1.4961 7.7734-3.0195 12.73-8.2578 15.484-16.348 1.2226-3.5898 1.3438-12.465 1.5625-116.71 0.15234-73.562-0.0391-114.89-0.55078-118.75-1.4141-10.703-6.0742-17.285-15.336-21.676l-5.1289-2.4297z"/><use mask="url(#b)" xlink:href="#a"/><path transform="matrix(2.4877 2.4877 -2.4877 2.4877 99.702 -1056.7)" d="m269.4 218.12v10.879h10.879l7.86e-4 3.3203h-10.879l-7.85e-4 10.879-3.281-7.85e-4v-10.879h-10.879l-7.85e-4 -3.3203h10.879l7.85e-4 -10.879z" stroke="#000"/><path d="m130.81 273.93-12.395-12.312-48.48-0.40625v-170.2h244.13v170.2l-48.48 0.40625-12.395 12.312-12.395 12.309h-97.594z" fill="#fff"/><path d="m164.99 157.99-10.746 10.75 27.062 27.062-27.062 27.061 10.648 10.652 27.064-27.062 27.062 27.062 10.746-10.75-27.062-27.062 27.062-27.062-1.2441-1.2422-9.4023-9.4082-27.066 27.062z" color="#000000" color-rendering="auto" dominant-baseline="auto" image-rendering="auto" opacity=".3" shape-rendering="auto" solid-color="#000000" style="font-feature-settings:normal;font-variant-alternates:normal;font-variant-caps:normal;font-variant-ligatures:normal;font-variant-numeric:normal;font-variant-position:normal;isolation:auto;mix-blend-mode:normal;shape-padding:0;text-decoration-color:#000000;text-decoration-line:none;text-decoration-style:solid;text-indent:0;text-orientation:mixed;text-transform:none;white-space:normal"/><path d="m164.99 150.49-10.746 10.75 27.062 27.062-27.062 27.061 10.648 10.652 27.064-27.062 27.062 27.062 10.746-10.75-27.062-27.062 27.062-27.062-1.2441-1.2422-9.4023-9.4082-27.066 27.062z" color="#000000" color-rendering="auto" dominant-baseline="auto" image-rendering="auto" shape-rendering="auto" solid-color="#000000" style="font-feature-settings:normal;font-variant-alternates:normal;font-variant-caps:normal;font-variant-ligatures:normal;font-variant-numeric:normal;font-variant-position:normal;isolation:auto;mix-blend-mode:normal;shape-padding:0;text-decoration-color:#000000;text-decoration-line:none;text-decoration-style:solid;text-indent:0;text-orientation:mixed;text-transform:none;white-space:normal"/><path transform="scale(.75)" d="m93.244 121.35v10h325.51v-10h-325.51z" opacity=".3" stroke-width="1.3333"/></svg>
